X: 67
T:Last Chance Bourree
M:2/4
L:1/8
C:Michel Pichon
R:Bourree
Z:Steve Mansfield
K:Dm
F2A2 | d3f | e>d cB | dc BA | F2A2 | dA2f |
e>d Bd | A4 :: dc2d | d3A | G>A GA |
GA GF | dc2d | F3B | AF BA | FB A2 :|
<end>
<start>
